img/brand_visual_cloud1.svg

<svg width="169" height="92" viewBox="0 0 169 92" fill="none" xmlns="http://www.w3.org/2000/svg">
<g clip-path="url(#clip0)">
<path d="M72.4431 12.8611C74.559 9.30928 77.4741 6.31385 80.9507 4.11905C84.4274 1.92424 88.3672 0.592202 92.449 0.231508C100.8 -0.282938 109.584 -0.240067 117.012 3.66114C124.44 7.56236 129.92 16.5223 127.353 24.5734C126.854 26.1167 126.083 27.6857 126.363 29.2805C126.701 31.2354 128.497 32.573 130.276 33.3875C135.12 35.6168 141.634 36.217 143.785 41.1556C150.951 57.6179 132.63 64.8116 120.476 66.3377C105.704 68.1898 90.8313 68.6699 75.9412 68.7213C62.7789 68.7728 49.3033 68.7213 36.9796 64.2114C33.6425 62.9853 29.8141 60.2501 30.7034 56.7691C30.9914 55.6716 31.7452 54.7113 31.8384 53.5795C32.1094 50.3899 27.7474 49.3782 24.5881 49.2925C17.1516 49.0181 9.47783 46.8831 4.11638 41.6701C2.22978 39.9793 0.882446 37.7588 0.245621 35.291C-1.06721 29.1176 4.17567 23.4844 9.63876 20.4578C26.7056 10.9405 44.9921 16.2222 64.4644 15.4334C66.709 15.3219 71.2658 14.8332 72.4431 12.8611Z" fill="#D5E3F9"/>
<path d="M141.659 74.6461C146.199 71.6108 152.153 72.0738 157.489 73.1456C160.183 73.5278 162.774 74.4489 165.112 75.855C167.365 77.3812 169.11 79.9363 169 82.7143C168.898 85.2865 167.137 87.6358 164.951 88.9991C162.687 90.2569 160.195 91.0412 157.625 91.3055C153.317 91.9495 148.957 92.1706 144.607 91.9657C142.332 91.9631 140.079 91.5117 137.975 90.6367C136.921 90.1954 135.986 89.5051 135.25 88.6236C134.513 87.7421 133.995 86.6948 133.74 85.5695C133.633 84.5687 133.727 83.5563 134.019 82.5938C134.31 81.6313 134.791 80.7388 135.434 79.9706C136.716 78.4396 138.201 77.0951 139.847 75.975C140.714 75.2785 141.641 74.6616 142.616 74.1316" fill="#D5E3F9"/>
</g>
<defs>
<clipPath id="clip0">
<rect width="169" height="92" fill="white" transform="matrix(-1 0 0 1 169 0)"/>
</clipPath>
</defs>
</svg>

<svg xmlns="http://www.w3.org/2000/svg" width="169" height="92" fill="none" xmlns:v="https://vecta.io/nano"><g clip-path="url(#A)" fill="#d5e3f9"><path d="M72.443 12.861a26.17 26.17 0 0 1 8.508-8.742A25.79 25.79 0 0 1 92.449.232c8.351-.514 17.135-.472 24.563 3.43s12.908 12.861 10.341 20.912c-.499 1.543-1.27 3.112-.99 4.707.338 1.955 2.134 3.293 3.913 4.107 4.844 2.229 11.358 2.829 13.509 7.768 7.166 16.462-11.155 23.656-23.309 25.182-14.772 1.852-29.645 2.332-44.535 2.384-13.162.052-26.638 0-38.962-4.51-3.337-1.226-7.165-3.961-6.276-7.442.288-1.098 1.042-2.058 1.135-3.19.271-3.19-4.091-4.201-7.25-4.287-7.437-.274-15.11-2.409-20.472-7.622a12.89 12.89 0 0 1-3.87-6.38c-1.313-6.173 3.93-11.807 9.393-14.833 17.067-9.517 35.353-4.236 54.826-5.024 2.245-.112 6.801-.6 7.979-2.572zm69.216 61.785c4.54-3.035 10.494-2.572 15.83-1.501a20.33 20.33 0 0 1 7.623 2.709c2.253 1.526 3.998 4.081 3.888 6.859-.102 2.572-1.863 4.922-4.049 6.285a19.11 19.11 0 0 1-7.326 2.306c-4.308.644-8.668.865-13.018.66a17.32 17.32 0 0 1-6.632-1.329 7.15 7.15 0 0 1-2.725-2.013 7.27 7.27 0 0 1-1.51-3.054c-.107-1.001-.013-2.013.279-2.976a7.44 7.44 0 0 1 1.415-2.623c1.282-1.531 2.767-2.876 4.413-3.996.867-.697 1.794-1.313 2.769-1.843"/></g><defs><clipPath id="A"><path fill="#fff" transform="matrix(-1 0 0 1 169 0)" d="M0 0h169v92H0z"/></clipPath></defs></svg>
